gama.ui.shared/icons_svg/light/overlays/small.dropdown.svg

<svg height="16" viewBox="-711.882 -3547.437 16 16" width="16" xmlns="http://www.w3.org/2000/svg"><path d="m-698.9448-3543.487h-9.88305c-.24269 0-.4382.1954-.4382.438 0 .0878.02695.1754.07415.243l4.8741 7.1863c.1618.2357.4854.2967.72136.1347.05394-.0336.10114-.081.13484-.1347l4.8808-7.1863c.1349-.2024.0809-.472-.1146-.607-.0741-.047-.155-.074-.2427-.074zm0-.6742c.2225 0 .4382.0672.62696.1887.50564.3505.64044 1.0382.29664 1.5505l-4.8741 7.1865c-.0877.1281-.1955.236-.3169.3169-.546.3706-1.2876.2292-1.6584-.3169l-4.8741-7.1865c-.1281-.182-.18876-.4044-.18876-.627 0-.6134.49886-1.1122 1.11236-1.1122z" fill="#fff"/></svg>

<?xml version="1.0" encoding="UTF-8" standalone="no"?>
<!DOCTYPE svg PUBLIC "-//W3C//DTD SVG 1.1//EN" "http://www.w3.org/Graphics/SVG/1.1/DTD/svg11.dtd">
<svg version="1.1" xmlns="http://www.w3.org/2000/svg" xmlns:xl="http://www.w3.org/1999/xlink" xmlns:dc="http://purl.org/dc/elements/1.1/" viewBox="-711.8821 -3547.4366 16.000008 16.000008" width="16.000008" height="16.000008">
  <defs/>
  <g id="SOURCES" stroke-dasharray="none" fill="none" stroke="none" fill-opacity="1" stroke-opacity="1">
    <title>SOURCES</title>
    <g id="SOURCES_Calque_2">
      <title>Calque 2</title>
      <g id="Group_9549">
        <g id="Graphic_9552"/>
        <g id="Group_9550">
          <title>play</title>
          <g id="Graphic_9551">
            <path d="M -698.9448 -3543.487 L -708.82785 -3543.487 C -709.07054 -3543.487 -709.26605 -3543.2916 -709.26605 -3543.049 C -709.26605 -3542.9612 -709.2391 -3542.8736 -709.1919 -3542.806 L -704.3178 -3535.6197 C -704.156 -3535.384 -703.8324 -3535.323 -703.59644 -3535.485 C -703.5425 -3535.5186 -703.4953 -3535.566 -703.4616 -3535.6197 L -698.5808 -3542.806 C -698.4459 -3543.0084 -698.4999 -3543.278 -698.6954 -3543.413 C -698.7695 -3543.46 -698.8504 -3543.487 -698.9381 -3543.487 Z M -698.9448 -3544.1612 C -698.7223 -3544.1612 -698.5066 -3544.094 -698.31784 -3543.9725 C -697.8122 -3543.622 -697.6774 -3542.9343 -698.0212 -3542.422 L -702.8953 -3535.2355 C -702.983 -3535.1074 -703.0908 -3534.9995 -703.2122 -3534.9186 C -703.7582 -3534.548 -704.4998 -3534.6894 -704.8706 -3535.2355 L -709.7447 -3542.422 C -709.8728 -3542.604 -709.93346 -3542.8264 -709.93346 -3543.049 C -709.93346 -3543.6624 -709.4346 -3544.1612 -708.8211 -3544.1612 Z" fill="white"/>
          </g>
        </g>
      </g>
    </g>
  </g>
</svg>
